X:237
L:1/4
M:4/4
K:C
"C" G G E E |"C" G G E2 |"G7" F F D2 |"C" G G E2 |"C" G G E E |"C" G G E2 |"G7" F F D D |"^c" C4 |]

